icons/orbit.svg

<svg width="24" height="24" viewBox="0 0 24 24" fill="none" xmlns="http://www.w3.org/2000/svg">
<path fill-rule="evenodd" clip-rule="evenodd" d="M11.9 3.96484C10.0529 3.96484 8.26274 4.60399 6.83333 5.77381C6.40593 6.12359 5.7759 6.06067 5.42612 5.63326C5.07634 5.20586 5.13926 4.57583 5.56666 4.22605C7.35343 2.76378 9.59115 1.96484 11.9 1.96484C14.2088 1.96484 16.4466 2.76378 18.2333 4.22605C18.6607 4.57583 18.7237 5.20586 18.3739 5.63326C18.0241 6.06067 17.3941 6.12359 16.9667 5.77381C15.5372 4.60399 13.7471 3.96484 11.9 3.96484ZM3 7.99993C3.55228 7.99993 4 8.44765 4 8.99993V9.00993C4 9.56222 3.55228 10.0099 3 10.0099C2.44771 10.0099 2 9.56222 2 9.00993V8.99993C2 8.44765 2.44771 7.99993 3 7.99993ZM12 9.99993C10.8954 9.99993 10 10.8954 10 11.9999C10 13.1045 10.8954 13.9999 12 13.9999C13.1046 13.9999 14 13.1045 14 11.9999C14 10.8954 13.1046 9.99993 12 9.99993ZM8 11.9999C8 9.79079 9.79086 7.99993 12 7.99993C14.2091 7.99993 16 9.79079 16 11.9999C16 14.2091 14.2091 15.9999 12 15.9999C9.79086 15.9999 8 14.2091 8 11.9999ZM21 7.99993C21.5523 7.99993 22 8.44765 22 8.99993V9.00993C22 9.56222 21.5523 10.0099 21 10.0099C20.4477 10.0099 20 9.56222 20 9.00993V8.99993C20 8.44765 20.4477 7.99993 21 7.99993ZM2.8901 12.006C3.43904 11.9453 3.93324 12.3411 3.99394 12.89C4.14226 14.2315 4.62755 15.5136 5.40464 16.6171C6.18173 17.7206 7.22535 18.6095 8.43838 19.2011C8.93477 19.4433 9.1409 20.0419 8.89878 20.5383C8.65667 21.0347 8.05799 21.2408 7.56161 20.9987C6.04532 20.2591 4.74079 19.148 3.76943 17.7686C2.79807 16.3893 2.19145 14.7866 2.00605 13.1098C1.94536 12.5609 2.34116 12.0667 2.8901 12.006ZM21.1099 12.006C21.6588 12.0667 22.0546 12.5609 21.9939 13.1098C21.8085 14.7866 21.2019 16.3893 20.2306 17.7686C19.2592 19.148 17.9547 20.2591 16.4384 20.9987C15.942 21.2408 15.3433 21.0347 15.1012 20.5383C14.8591 20.0419 15.0652 19.4433 15.5616 19.2011C16.7746 18.6095 17.8183 17.7206 18.5954 16.6171C19.3724 15.5136 19.8577 14.2315 20.0061 12.89C20.0667 12.3411 20.561 11.9453 21.1099 12.006ZM12 19.9999C12.5523 19.9999 13 20.4476 13 20.9999V21.0099C13 21.5622 12.5523 22.0099 12 22.0099C11.4477 22.0099 11 21.5622 11 21.0099V20.9999C11 20.4476 11.4477 19.9999 12 19.9999Z" fill="black"/>
</svg>

<svg
  width="24"
  height="24"
  viewBox="0 0 24 24"
  xmlns="http://www.w3.org/2000/svg"
>
  <path
    fill-rule="evenodd"
    clip-rule="evenodd"
    d="M11.9 3.965a8 8 0 0 0-5.067 1.809 1 1 0 1 1-1.266-1.548 10 10 0 0 1 12.666 0 1 1 0 1 1-1.266 1.548 8 8 0 0 0-5.067-1.81zM3 8a1 1 0 0 1 1 1v.01a1 1 0 0 1-2 0V9a1 1 0 0 1 1-1zm9 2a2 2 0 1 0 0 4 2 2 0 0 0 0-4zm-4 2a4 4 0 1 1 8 0 4 4 0 0 1-8 0zm13-4a1 1 0 0 1 1 1v.01a1 1 0 1 1-2 0V9a1 1 0 0 1 1-1zM2.89 12.006a1 1 0 0 1 1.104.884 8 8 0 0 0 4.444 6.311A1 1 0 0 1 7.562 21a10 10 0 0 1-5.556-7.89 1 1 0 0 1 .884-1.103zm18.22 0a1 1 0 0 1 .884 1.104 10 10 0 0 1-5.556 7.889 1 1 0 0 1-.876-1.798 8 8 0 0 0 4.444-6.311 1 1 0 0 1 1.104-.884zM12 20a1 1 0 0 1 1 1v.01a1 1 0 1 1-2 0V21a1 1 0 0 1 1-1z"
  />
</svg>
